icons/absolute-elevation-32.svg

<svg id="icons" xmlns="http://www.w3.org/2000/svg" viewBox="0 0 32 32"><defs><style>.cls-1{fill:none;}.cls-2{fill-rule:evenodd;}</style></defs><rect class="cls-1" width="32" height="32"/><path class="cls-2" d="M17,22H16V20h1Zm-1,3h1V23H16Zm1-8H16v2h1Zm0-3H16v2h1Zm-.5-7.9a3.4,3.4,0,1,0,3.4,3.4A3.40022,3.40022,0,0,0,16.5,6.1Zm0,5.82855A2.42856,2.42856,0,1,1,18.92859,9.5,2.43115,2.43115,0,0,1,16.5,11.92853ZM29.84082,28.87207a.51275.51275,0,0,0,.03809-.70117.47462.47462,0,0,0-.36133-.16895.49052.49052,0,0,0-.31836.1211A4.66885,4.66885,0,0,1,26.13867,29a5.138,5.138,0,0,1-3.15429-.88672l-.13379-.07422-.1836-.0332-.166.03516-.14356.08886c-.083.14551-.5957.87012-2.47754.87012a4.85822,4.85822,0,0,1-3.07422-.88574l-.13867-.07617-.18554-.03125-.16211.03613-.126.07031A7.47,7.47,0,0,1,12.62109,29a3.35277,3.35277,0,0,1-2.69824-.88672L9.791,28.04l-.1836-.03418L9.4375,28.043l-.127.07226A6.709,6.709,0,0,1,5.8623,29a4.85239,4.85239,0,0,1-3.05957-.867.47141.47141,0,0,0-.67968.042.50293.50293,0,0,0,.03711.69705A5.60592,5.60592,0,0,0,5.8623,30a7.8819,7.8819,0,0,0,3.75684-.88965l.09375.06153A4.5924,4.5924,0,0,0,12.62109,30a8.39313,8.39313,0,0,0,3.87989-.88867A6.09606,6.09606,0,0,0,19.87988,30a3.81272,3.81272,0,0,0,2.60352-.752l.19726-.13672A6.38843,6.38843,0,0,0,26.13867,30,5.53777,5.53777,0,0,0,29.84082,28.87207ZM3,27V26H6V25H3V22H6V21H3V18H6V17H3V14H6V13H3V10H6V9H3V6H6V5H3V2H2V27Z"/></svg>

<svg xmlns="http://www.w3.org/2000/svg" viewBox="0 0 32 32"><path fill="none" d="M0 0h32v32H0z"/><path d="M17 22h-1v-2h1zm-1 3h1v-2h-1zm1-8h-1v2h1zm0-3h-1v2h1zm-.5-7.9a3.4 3.4 0 1 0 3.4 3.4 3.4 3.4 0 0 0-3.4-3.4zm0 5.829A2.429 2.429 0 1 1 18.929 9.5a2.431 2.431 0 0 1-2.429 2.429zm13.34 16.943a.513.513 0 0 0 .039-.701.475.475 0 0 0-.361-.169.49.49 0 0 0-.319.121 4.669 4.669 0 0 1-3.06.877 5.138 5.138 0 0 1-3.155-.887l-.133-.074-.184-.033-.166.035-.144.089c-.083.145-.595.87-2.477.87a4.858 4.858 0 0 1-3.074-.886l-.139-.076-.186-.031-.162.036-.126.07a7.47 7.47 0 0 1-3.572.887 3.353 3.353 0 0 1-2.698-.887l-.132-.073-.184-.034-.17.037-.126.072a6.709 6.709 0 0 1-3.45.885 4.852 4.852 0 0 1-3.06-.867.471.471 0 0 0-.679.042.503.503 0 0 0 .037.697A5.606 5.606 0 0 0 5.862 30a7.882 7.882 0 0 0 3.757-.89l.094.062A4.592 4.592 0 0 0 12.62 30a8.393 8.393 0 0 0 3.88-.889 6.096 6.096 0 0 0 3.38.889 3.813 3.813 0 0 0 2.603-.752l.198-.137a6.388 6.388 0 0 0 3.458.889 5.538 5.538 0 0 0 3.702-1.128zM3 27v-1h3v-1H3v-3h3v-1H3v-3h3v-1H3v-3h3v-1H3v-3h3V9H3V6h3V5H3V2H2v25z" fill-rule="evenodd"/></svg>
